build/assets/img/stage-boxes/steps-box-hover.svg

<svg width="134" height="130" viewBox="0 0 134 130" fill="none" xmlns="http://www.w3.org/2000/svg">
<g clip-path="url(#clip0)">
<path d="M25.4071 3.20435L133.968 3.58134L132.871 99.4006L25.1875 99.5891L25.4071 3.20435Z" fill="#102E5B"/>
<path d="M25.5955 3.1416L0.0627341 33.7409L0 129.215L25.5955 99.3378V3.1416Z" fill="#0A2D49"/>
<path d="M108.373 129.843L0 129.969L0.0627341 33.741L107.809 33.5525L108.373 129.843Z" fill="#102E5B"/>
<path d="M108.373 129.843L133.969 99.1806V3.5813L108.467 33.7722L108.373 129.843Z" fill="#0A2D49"/>
<path d="M108.467 33.7722L133.969 3.5813V99.9032L108.373 129.843L108.467 33.7722Z" fill="#053866"/>
<path d="M108.467 33.7722L133.969 3.5813V99.8718L108.373 129.843L108.467 33.7722Z" fill="#053866"/>
<path d="M127.601 11.1212L133.968 3.5813V27.9288L127.601 35.4687V11.1212Z" fill="#053866"/>
<path d="M129.797 24.5675C128.448 21.6458 127.789 17.8444 127.789 11.1214L128.573 10.1475C128.573 16.0851 129.295 20.1378 130.455 22.6197C131.428 24.6617 132.682 24.9759 133.968 23.4051L133.937 25.9812C133.278 26.7666 132.839 26.9551 132.243 26.9551C131.428 26.9551 130.487 26.044 129.797 24.5675Z" fill="#B9D5FD"/>
<path d="M121.233 18.661L127.601 11.1211V35.4686L121.233 43.0085V18.661Z" fill="#FF8098"/>
<path d="M114.866 26.201L121.234 18.6611V43.0086L114.866 50.5171V26.201Z" fill="#709FDC"/>
<path d="M108.467 33.7722L114.866 26.2009V50.517L108.498 57.9626L108.467 33.7722Z" fill="#911A31"/>
<path d="M127.601 35.4686L133.968 27.9287V51.8992L127.601 59.4391V35.4686Z" fill="#B9D5FD"/>
<path d="M121.233 43.0086L127.601 35.4688V59.4393L121.233 66.9791V43.0086Z" fill="#C43B55"/>
<path d="M114.866 50.517L121.234 43.0085V66.9791L114.866 74.519V50.517Z" fill="#3D95D1"/>
<path d="M108.498 57.963L114.866 50.5173V74.5193L108.498 81.9335V57.963Z" fill="#B9D5FD"/>
<path d="M121.233 66.9791L127.601 59.4392V83.4412L121.233 90.981V66.9791Z" fill="#FF8098"/>
<path d="M114.866 74.5191L121.234 66.9792V90.9812L114.866 98.5211V74.5191Z" fill="#0E2951"/>
<path d="M108.498 81.9332L114.866 74.519V98.521L108.624 105.935L108.498 81.9332Z" fill="#709FDC"/>
<path d="M127.601 83.4414L133.968 75.8701V99.872L127.601 107.412V83.4414Z" fill="#911A31"/>
<path d="M121.233 90.9813L127.601 83.4414V107.412L121.233 114.952V90.9813Z" fill="#053866"/>
<path d="M114.866 98.5213L121.234 90.9814V114.952L114.866 122.492V98.5213Z" fill="#FF8098"/>
<path d="M108.624 105.935L114.866 98.5212V122.492L108.373 129.843L108.624 105.935Z" fill="#3D95D1"/>
<path d="M130.832 20.2634C129.766 18.0014 129.201 14.8598 129.201 9.70754L129.985 8.73364C129.985 12.912 130.456 15.9279 131.397 17.8757C131.961 19.0381 133.091 19.4151 134 18.3156V21.2059C133.498 21.8028 133.185 21.9913 132.714 21.9913C131.993 21.9913 131.366 21.3944 130.832 20.2634Z" fill="#3D95D1"/>
<path d="M131.867 15.237C131.145 13.6976 130.737 11.31 130.737 7.82278L131.521 6.84888C131.521 9.39358 131.647 10.5874 132.149 12.1268C132.619 13.5719 133.435 13.729 133.999 13.1007V15.991C133.654 16.3994 133.466 16.4936 133.153 16.4936C132.651 16.4622 132.212 16.0224 131.867 15.237Z" fill="#3376B3"/>
<path d="M132.777 10.179C132.338 9.23655 132.118 7.85424 132.118 5.87502L133.028 4.90112C132.871 6.34627 132.871 7.28875 133.185 7.79141C133.292 7.88965 133.432 7.94415 133.577 7.94415C133.722 7.94415 133.862 7.88965 133.969 7.79141V10.6817C133.781 10.933 133.749 10.933 133.561 10.933C133.279 10.9016 132.996 10.6503 132.777 10.179Z" fill="#709FDC"/>
<path d="M108.624 99.5891L113.11 94.217V58.9052L108.624 64.2146V60.8845L114.051 54.7583V96.2276L108.655 102.574L108.624 99.5891Z" fill="#FF8098"/>
<path d="M108.624 99.5891L113.11 94.2169V76.027L114.051 75.0845V96.2275L108.624 102.951V99.5891Z" fill="#0E2951"/>
<path d="M108.562 93.8712L111.604 90.2898V66.0051L108.624 69.3352V66.225L112.514 61.8582V91.7663L108.656 96.3531L108.562 93.8712Z" fill="#FF8098"/>
<path d="M108.624 87.6823L110.004 85.7973V74.4875L108.624 76.184V72.8225L110.945 70.3406V87.808L108.749 90.4155L108.624 87.6823Z" fill="#FF8098"/>
<path d="M108.562 87.3996L109.942 85.9859V79.7969L110.851 78.823V87.9965L108.624 90.5726L108.562 87.3996Z" fill="#0E2951"/>
<path d="M108.624 93.6515L111.604 90.2899V77.8491L112.514 76.8752V92.2377L108.624 97.013V93.6515Z" fill="#0E2951"/>
<path d="M129.139 87.3681L133.969 81.6504V99.8717L129.139 105.621V87.3681Z" fill="#C43B55"/>
<path d="M130.769 91.6722L133.968 87.8708V99.8718L130.769 103.642V91.6722Z" fill="#FF8098"/>
<path d="M118.881 21.8657L121.202 34.2123L117.187 47.6584L114.897 35.3118L118.881 21.8657Z" fill="#0E2951"/>
<path d="M118.473 28.1802L119.665 34.4948L117.595 41.3435L116.435 35.0603L118.473 28.1802Z" fill="#6780B3"/>
<path d="M114.866 103.296L121.234 95.7566V114.952L114.866 122.492V103.296Z" fill="#C43B55"/>
<path d="M114.866 108.574L121.234 101.034V114.952L114.866 122.492V108.574Z" fill="#911A31"/>
<path d="M114.866 113.883L121.234 106.312V114.951L114.866 122.491V113.883Z" fill="#053866"/>
<path d="M114.866 118.188L121.234 110.648V114.952L114.866 122.492V118.188Z" fill="#0E2951"/>
<path d="M121.798 61.8582L127.036 54.5697L121.798 48.8205L127.036 41.532L121.798 61.8582Z" fill="#911A31"/>
<path d="M133.185 28.8712L133.969 27.9287V51.8992L133.185 52.8731V28.8712Z" fill="#55A2E0"/>
<path d="M131.962 30.3165L132.746 29.374V53.3445L131.962 54.3184V30.3165Z" fill="#55A2E0"/>
<path d="M127.945 35.1233L128.729 34.1494V58.1514L127.945 59.0938V35.1233Z" fill="#55A2E0"/>
<path d="M129.295 33.3953L130.205 32.4214V56.3919L129.295 57.3344V33.3953Z" fill="#55A2E0"/>
<path d="M130.737 31.7617L131.49 30.7878V54.7898L130.737 55.7323V31.7617Z" fill="#55A2E0"/>
<path d="M127.601 59.4393L133.968 51.8994V75.8699L127.601 83.4412V59.4393Z" fill="#0E2951"/>
<path d="M127.601 71.4401L130.769 67.6702V79.6711L127.601 83.4411V71.4401Z" fill="#55A2E0"/>
<path d="M130.769 55.6694L133.968 51.8994V63.9004L130.769 67.6703V55.6694Z" fill="#55A2E0"/>
<path d="M122.771 94.9708L126.033 91.0752V103.422L122.771 107.317V97.5783L125.437 94.4367V101.882L123.398 104.301V99.0863L124.809 97.3898V100.374L123.994 101.348" stroke="#3D95D1" stroke-miterlimit="10"/>
<path d="M112.952 122.492L109.282 105.967L110.631 104.459L114.489 121.078L112.952 122.492Z" fill="#003A79"/>
<path d="M110.852 124.408L108.907 126.827L112.107 102.951L114.051 101.034L110.852 124.408Z" fill="#003A79"/>
<path d="M118.944 74.4878L119.948 73.2939V77.1267L118.944 78.3205V74.4878Z" fill="#B9D5FD"/>
<path d="M117.532 81.3994L118.536 80.2056V84.0383L117.532 85.2635V81.3994Z" fill="#B9D5FD"/>
<path d="M116.121 88.3734L117.156 87.1482V91.0124L116.121 92.2062V88.3734Z" fill="#B9D5FD"/>
<path d="M108.468 33.7721L0.0634766 33.7407L0.126211 129.843H108.374L108.468 33.7721Z" fill="#054270"/>
<path d="M108.374 129.843L0.0948436 129.937L0.0634766 33.7407L108.468 33.7721L108.374 129.843Z" fill="#053866"/>
<path d="M27.2566 105.873L0.0927734 105.904V81.902L27.2566 81.8706V105.873Z" fill="#F4F9FF"/>
<path d="M54.3903 105.872H27.2578V81.8705L54.3903 81.8391V105.872Z" fill="#274684"/>
<path d="M81.4917 105.841L54.3906 105.872V81.8388L81.4917 81.8074V105.841Z" fill="#3D95D1"/>
<path d="M108.624 105.935L81.4912 105.841V81.8074L108.624 81.9016V105.935Z" fill="#B9D5FD"/>
<path d="M54.3903 81.839L27.2578 81.8704V57.8371L54.3903 57.8057V81.839Z" fill="#B9D5FD"/>
<path d="M81.4917 81.8076L54.3906 81.839V57.8057H81.4917V81.8076Z" fill="#0E2951"/>
<path d="M108.624 81.9019L81.4912 81.8076V57.8057L108.624 57.8685V81.9019Z" fill="#709FDC"/>
<path d="M54.3903 129.906H27.2578V105.872H54.3903V129.906Z" fill="#C43B55"/>
<path d="M81.6342 129.874L54.3906 129.906V105.872L81.6342 105.841V129.874Z" fill="#709FDC"/>
<path d="M108.373 129.843L81.6797 129.874V105.841L108.624 105.935L108.373 129.843Z" fill="#911A31"/>
<path d="M27.2587 57.8369L0.0948436 57.8683L0.0634766 33.7407L27.2587 33.835V57.8369Z" fill="#911A31"/>
<path d="M54.3903 57.8059L27.2578 57.8373V33.8354L54.3903 33.804V57.8059Z" fill="#053866"/>
<path d="M81.4917 57.8058H54.3906V33.8039L81.4917 33.7725V57.8058Z" fill="#0E2951"/>
<path d="M108.624 57.8686L81.4912 57.8058V33.7725H108.467L108.624 57.8686Z" fill="#3D95D1"/>
<path d="M84.9736 102.574V61.0732L108.373 61.0417L107.934 64.1205H88.8945V99.4951L108.624 99.5893V102.951L84.9736 102.574Z" fill="#274684"/>
<path d="M84.7227 61.0729L108.624 60.853V64.2146L88.8945 64.1203V81.839H84.9736L84.7227 61.0729Z" fill="#0E2951"/>
<path d="M91.498 97.0132V67.2935L108.624 66.2253V69.1785L95.3876 69.3984V93.5888L108.624 93.6516V97.0132H91.498Z" fill="#274684"/>
<path d="M98.5557 90.5412V73.0738L108.562 73.011L107.934 76.1526L102.445 76.1212V87.4624L108.624 87.3996V90.5726L98.5557 90.5412Z" fill="#274684"/>
<path d="M98.5557 73.0741L108.624 72.8228V76.1843L102.445 76.1214V81.9334L98.5557 81.8706V73.0741Z" fill="#0E2951"/>
<path d="M91.498 66.351L108.624 66.2253V69.3355L95.3876 69.3984V81.8078H91.498V66.351Z" fill="#0E2951"/>
<path d="M13.6454 45.8359L0.0948436 45.8673L0.0634766 33.7407L13.6454 33.835V45.8359Z" fill="#FF8098"/>
<path d="M64.3346 129.78L54.4854 114.7L71.5177 105.967L81.3983 121.047L64.3346 129.78Z" fill="#0E2951"/>
<path d="M66.091 123.968L61.0723 116.24L69.7923 111.779L74.7797 119.507L66.091 123.968Z" fill="#6780B3"/>
<path d="M81.4917 52.9991L54.3906 53.0306V33.8039L81.4917 33.7725V52.9991Z" fill="#053866"/>
<path d="M81.4917 47.7212L54.3906 47.7527V33.8039L81.4917 33.7725V47.7212Z" fill="#911A31"/>
<path d="M81.4917 42.4433H54.3906V33.8039L81.4917 33.7725V42.4433Z" fill="#C43B55"/>
<path d="M81.4917 38.1079H54.3906V33.8039L81.4917 33.7725V38.1079Z" fill="#FF8098"/>
<path d="M52.76 85.7661L28.8896 85.7975L52.76 101.003L28.8896 101.034" fill="#0E2951"/>
<path d="M0.0634766 81.6506L3.95299 81.5249V106.029L0.0634766 106.155V81.6506Z" fill="#709FDC"/>
<path d="M5.17578 81.9648L9.09666 81.8391V105.841L5.17578 105.998V81.9648Z" fill="#709FDC"/>
<path d="M21.5805 81.9017L25.4701 81.7446L25.4073 105.841L21.4551 105.966L21.5805 81.9017Z" fill="#709FDC"/>
<path d="M16.0283 81.933L19.9806 81.8074V105.841L16.0283 105.966V81.933Z" fill="#709FDC"/>
<path d="M10.6016 81.9645L14.5538 81.8074V105.841L10.6016 105.998V81.9645Z" fill="#709FDC"/>
<path d="M27.2566 81.8708L0.0927734 81.9022V57.8688L27.2566 57.8374V81.8708Z" fill="#0E2951"/>
<path d="M27.2566 129.906L0.0927734 129.937V105.904L27.2566 105.872V129.906Z" fill="#053866"/>
<path d="M27.2578 69.8384L13.6445 69.8698V57.8688L27.2578 57.8374V69.8384Z" fill="#3D95D1"/>
<path d="M0.0634766 109.517V107.129C14.5237 107.129 26.7882 113.569 26.7882 129.937L23.526 129.874C23.526 118.847 13.1122 109.517 0.0634766 109.517Z" fill="#B9D5FD"/>
<path d="M0 114.7V111.81C10.8844 111.81 20.2317 118.282 20.2317 129.811L16.3109 129.937C16.3109 121.517 9.53558 114.7 0 114.7Z" fill="#3D95D1"/>
<path d="M0.0634766 120.104L0.126211 117.339C7.52883 117.339 13.0808 122.743 13.0808 129.937L9.44222 130C9.41085 124.785 5.83501 120.104 0.0634766 120.104Z" fill="#3376B3"/>
<path d="M0.0634766 125.885L0.126211 122.837C4.17256 122.837 7.21516 125.79 6.55645 129.812L3.29428 129.749C3.29428 127.455 2.60421 125.853 0.0634766 125.885Z" fill="#709FDC"/>
<path d="M51.4733 55.2923H30.1123V36.3484H51.4733V51.2711H34.1273V39.8356L47.4583 39.867V47.8153H38.1423V43.2599H43.4433" stroke="#3D95D1" stroke-width="2" stroke-miterlimit="10"/>
<path d="M104.829 54.9156L86.3848 36.6313" stroke="#0E2951" stroke-width="4" stroke-miterlimit="10"/>
<path d="M86.3848 54.9156L104.829 36.6313" stroke="#0E2951" stroke-width="4" stroke-miterlimit="10"/>
<path d="M64.146 77.0324H59.8174V73.1996L64.146 73.1682V77.0324Z" fill="#B9D5FD"/>
<path d="M70.106 71.7546L65.7773 71.7231V67.8904L70.106 67.9218V71.7546Z" fill="#B9D5FD"/>
<path d="M76.065 66.4453L71.7363 66.4768V62.6125H76.065V66.4453Z" fill="#B9D5FD"/>
<path d="M20.703 52.0877H0.0948436L0.0634766 33.7407L20.703 33.835V52.0877Z" fill="#C43B55"/>
<path d="M15.1824 47.1554H0.0948436L0.0634766 33.7407L15.1824 33.8036V47.1554Z" fill="#FF8098"/>
<path d="M13.6433 81.9018H0.0927734V69.9008L13.6433 69.8694V81.9018Z" fill="#3D95D1"/>
<path d="M72.3018 3.42452L25.1885 3.01611L0.0634766 33.7411L47.5218 33.8039L72.3018 3.42452Z" fill="#165B93"/>
<path d="M133.185 1.66506L133.592 0.659739L133.843 0" fill="#34DD17"/>
<path d="M133.969 3.5814L82.5898 3.42432L59.8174 33.898L108.468 33.7723L133.969 3.5814Z" fill="#165B93"/>
<path d="M121.266 10.2731L108.468 33.7724L0.0634766 33.741L12.7985 10.0532L121.266 10.2731Z" fill="#004376"/>
<path d="M123.272 8.10553L133.968 3.5816L25.1871 3.01611L14.5537 7.72854L123.272 8.10553Z" fill="#004376"/>
<path d="M108.679 57.5715H0V105.857H108.679V57.5715Z" fill="#FF8098"/>
</g>
<defs>
<clipPath id="clip0">
<rect width="134" height="130" fill="white"/>
</clipPath>
</defs>
</svg>

<svg width="134" height="130" fill="none" xmlns="http://www.w3.org/2000/svg"><g clip-path="url(#clip0)"><path d="M25.407 3.204l108.561.377-1.097 95.82-107.684.188.22-96.385z" fill="#102E5B"/><path d="M25.596 3.142L.063 33.74 0 129.215l25.596-29.877V3.142z" fill="#0A2D49"/><path d="M108.373 129.843L0 129.969l.063-96.228 107.746-.188.564 96.29z" fill="#102E5B"/><path d="M108.373 129.843l25.596-30.662V3.58l-25.502 30.191-.094 96.071z" fill="#0A2D49"/><path d="M108.467 33.772l25.502-30.19v96.321l-25.596 29.94.094-96.07z" fill="#053866"/><path d="M108.467 33.772l25.502-30.19v96.29l-25.596 29.971.094-96.07z" fill="#053866"/><path d="M127.601 11.121l6.367-7.54V27.93l-6.367 7.54V11.12z" fill="#053866"/><path d="M129.797 24.567c-1.349-2.921-2.008-6.723-2.008-13.446l.784-.973c0 5.937.722 9.99 1.882 12.472.973 2.042 2.227 2.356 3.513.785l-.031 2.576c-.659.786-1.098.974-1.694.974-.815 0-1.756-.911-2.446-2.387z" fill="#B9D5FD"/><path d="M121.233 18.661l6.368-7.54V35.47l-6.368 7.54V18.66z" fill="#FF8098"/><path d="M114.866 26.201l6.368-7.54V43.01l-6.368 7.508V26.201z" fill="#709FDC"/><path d="M108.467 33.772l6.399-7.571v24.316l-6.368 7.446-.031-24.19z" fill="#911A31"/><path d="M127.601 35.469l6.367-7.54v23.97l-6.367 7.54V35.47z" fill="#B9D5FD"/><path d="M121.233 43.009l6.368-7.54v23.97l-6.368 7.54V43.01z" fill="#C43B55"/><path d="M114.866 50.517l6.368-7.509V66.98l-6.368 7.54V50.517z" fill="#3D95D1"/><path d="M108.498 57.963l6.368-7.446V74.52l-6.368 7.414v-23.97z" fill="#B9D5FD"/><path d="M121.233 66.98l6.368-7.54v24l-6.368 7.54V66.979z" fill="#FF8098"/><path d="M114.866 74.52l6.368-7.54v24l-6.368 7.54v-24z" fill="#0E2951"/><path d="M108.498 81.933l6.368-7.414v24.002l-6.242 7.414-.126-24.002z" fill="#709FDC"/><path d="M127.601 83.441l6.367-7.57v24.001l-6.367 7.54v-23.97z" fill="#911A31"/><path d="M121.233 90.981l6.368-7.54v23.971l-6.368 7.54v-23.97z" fill="#053866"/><path d="M114.866 98.521l6.368-7.54v23.971l-6.368 7.54v-23.97z" fill="#FF8098"/><path d="M108.624 105.935l6.242-7.414v23.971l-6.493 7.351.251-23.908zm22.208-85.672c-1.066-2.262-1.631-5.403-1.631-10.555l.784-.974c0 4.178.471 7.194 1.412 9.142.564 1.162 1.694 1.54 2.603.44v2.89c-.502.597-.815.785-1.286.785-.721 0-1.348-.597-1.882-1.728z" fill="#3D95D1"/><path d="M131.867 15.237c-.722-1.54-1.13-3.927-1.13-7.414l.784-.974c0 2.545.126 3.738.628 5.278.47 1.445 1.286 1.602 1.85.974v2.89c-.345.408-.533.503-.846.503-.502-.032-.941-.472-1.286-1.257z" fill="#3376B3"/><path d="M132.777 10.179c-.439-.942-.659-2.325-.659-4.304l.91-.974c-.157 1.445-.157 2.388.157 2.89a.58.58 0 00.784 0v2.89c-.188.252-.22.252-.408.252-.282-.031-.565-.283-.784-.754z" fill="#709FDC"/><path d="M108.624 99.59l4.486-5.373V58.905l-4.486 5.31v-3.33l5.427-6.127v41.47l-5.396 6.346-.031-2.985z" fill="#FF8098"/><path d="M108.624 99.59l4.486-5.373v-18.19l.941-.942v21.143l-5.427 6.723v-3.362z" fill="#0E2951"/><path d="M108.562 93.871l3.042-3.581V66.005l-2.98 3.33v-3.11l3.89-4.367v29.908l-3.858 4.587-.094-2.482z" fill="#FF8098"/><path d="M108.624 87.682l1.38-1.885v-11.31l-1.38 1.697v-3.361l2.321-2.482v17.467l-2.196 2.607-.125-2.733z" fill="#FF8098"/><path d="M108.562 87.4l1.38-1.414v-6.19l.909-.973v9.174l-2.227 2.576-.062-3.173z" fill="#0E2951"/><path d="M108.624 93.651l2.98-3.361V77.85l.91-.975v15.363l-3.89 4.775v-3.362z" fill="#0E2951"/><path d="M129.139 87.368l4.83-5.718v18.222l-4.83 5.749V87.368z" fill="#C43B55"/><path d="M130.769 91.672l3.199-3.801v12l-3.199 3.771v-11.97z" fill="#FF8098"/><path d="M118.881 21.866l2.321 12.346-4.015 13.446-2.29-12.346 3.984-13.446z" fill="#0E2951"/><path d="M118.473 28.18l1.192 6.315-2.07 6.849-1.16-6.284 2.038-6.88z" fill="#6780B3"/><path d="M114.866 103.296l6.368-7.54v19.196l-6.368 7.54v-19.196z" fill="#C43B55"/><path d="M114.866 108.574l6.368-7.54v13.918l-6.368 7.54v-13.918z" fill="#911A31"/><path d="M114.866 113.883l6.368-7.571v8.639l-6.368 7.54v-8.608z" fill="#053866"/><path d="M114.866 118.188l6.368-7.54v4.304l-6.368 7.54v-4.304z" fill="#0E2951"/><path d="M121.798 61.858l5.238-7.288-5.238-5.75 5.238-7.288-5.238 20.326z" fill="#911A31"/><path d="M133.185 28.871l.784-.942v23.97l-.784.974V28.871zm-1.223 1.446l.784-.943v23.97l-.784.974V30.317zm-4.017 4.806l.784-.974v24.002l-.784.943v-23.97zm1.35-1.728l.91-.974v23.97l-.91.943V33.395zm1.442-1.633l.753-.974V54.79l-.753.942v-23.97z" fill="#55A2E0"/><path d="M127.601 59.44l6.367-7.54v23.97l-6.367 7.571V59.44z" fill="#0E2951"/><path d="M127.601 71.44l3.168-3.77v12.001l-3.168 3.77v-12zm3.168-15.77l3.199-3.77v12l-3.199 3.77v-12z" fill="#55A2E0"/><path d="M122.771 94.97l3.262-3.895v12.347l-3.262 3.895v-9.739l2.666-3.141v7.445l-2.039 2.419v-5.215l1.411-1.696v2.984l-.815.974" stroke="#3D95D1" stroke-miterlimit="10"/><path d="M112.952 122.492l-3.67-16.525 1.349-1.508 3.858 16.619-1.537 1.414z" fill="#003A79"/><path d="M110.852 124.408l-1.945 2.419 3.2-23.876 1.944-1.917-3.199 23.374z" fill="#003A79"/><path d="M118.944 74.488l1.004-1.194v3.833l-1.004 1.194v-3.833zm-1.412 6.912l1.004-1.194v3.832l-1.004 1.225V81.4zm-1.411 6.973l1.035-1.225v3.864l-1.035 1.194v-3.833z" fill="#B9D5FD"/><path d="M108.468 33.772L.063 33.741l.063 96.102h108.248l.094-96.07z" fill="#054270"/><path d="M108.374 129.843l-108.28.094-.03-96.196 108.404.031-.094 96.071z" fill="#053866"/><path d="M27.257 105.873l-27.164.031V81.902l27.164-.031v24.002z" fill="#F4F9FF"/><path d="M54.39 105.872H27.258V81.871l27.132-.032v24.033z" fill="#274684"/><path d="M81.492 105.841l-27.101.031V81.839l27.1-.032v24.034z" fill="#3D95D1"/><path d="M108.624 105.935l-27.133-.094V81.807l27.133.095v24.033zM54.39 81.839l-27.132.031V57.837l27.132-.031v24.033z" fill="#B9D5FD"/><path d="M81.492 81.808l-27.101.031V57.806h27.1v24.002z" fill="#0E2951"/><path d="M108.624 81.902l-27.133-.094V57.806l27.133.063v24.033z" fill="#709FDC"/><path d="M54.39 129.906H27.258v-24.034H54.39v24.034z" fill="#C43B55"/><path d="M81.634 129.874l-27.243.032v-24.034l27.243-.031v24.033z" fill="#709FDC"/><path d="M108.373 129.843l-26.693.031v-24.033l26.944.094-.251 23.908zM27.259 57.837l-27.164.031-.032-24.127 27.196.094v24.002z" fill="#911A31"/><path d="M54.39 57.806l-27.132.031V33.835l27.132-.031v24.002z" fill="#053866"/><path d="M81.492 57.806H54.39V33.804l27.1-.032v24.034z" fill="#0E2951"/><path d="M108.624 57.869l-27.133-.063V33.773h26.976l.157 24.096z" fill="#3D95D1"/><path d="M84.974 102.574v-41.5l23.399-.032-.439 3.079h-19.04v35.374l19.73.094v3.362l-23.65-.377z" fill="#274684"/><path d="M84.723 61.073l23.901-.22v3.362l-19.73-.095v17.72h-3.92l-.251-20.766z" fill="#0E2951"/><path d="M91.498 97.013v-29.72l17.126-1.068v2.954l-13.236.22v24.19l13.236.063v3.361H91.498z" fill="#274684"/><path d="M98.556 90.541V73.074l10.006-.063-.628 3.142-5.489-.032v11.341l6.179-.062v3.173l-10.068-.032z" fill="#274684"/><path d="M98.556 73.074l10.068-.251v3.361l-6.179-.063v5.812l-3.89-.062v-8.797z" fill="#0E2951"/><path d="M91.498 66.351l17.126-.126v3.11l-13.236.063v12.41h-3.89V66.35z" fill="#0E2951"/><path d="M13.645 45.836l-13.55.031-.032-12.126 13.582.094v12z" fill="#FF8098"/><path d="M64.335 129.78l-9.85-15.08 17.033-8.733 9.88 15.08-17.063 8.733z" fill="#0E2951"/><path d="M66.091 123.968l-5.019-7.728 8.72-4.461 4.988 7.728-8.689 4.461z" fill="#6780B3"/><path d="M81.492 53l-27.101.03V33.805l27.1-.032V53z" fill="#053866"/><path d="M81.492 47.721l-27.101.032v-13.95l27.1-.03V47.72z" fill="#911A31"/><path d="M81.492 42.443H54.39v-8.64l27.1-.03v8.67z" fill="#C43B55"/><path d="M81.492 38.108H54.39v-4.304l27.1-.032v4.336z" fill="#FF8098"/><path d="M52.76 85.766l-23.87.031 23.87 15.206-23.87.031" fill="#0E2951"/><path d="M.063 81.65l3.89-.125v24.504l-3.89.126V81.651zm5.113.315l3.92-.126v24.002l-3.92.157V81.965zm16.404-.063l3.89-.157-.063 24.096-3.952.125.126-24.064zm-5.552.031l3.953-.126v24.034l-3.953.125V81.933zm-5.426.032l3.952-.158v24.034l-3.952.157V81.964z" fill="#709FDC"/><path d="M27.257 81.87l-27.164.032V57.87l27.164-.032v24.034z" fill="#0E2951"/><path d="M27.257 129.906l-27.164.031v-24.033l27.164-.032v24.034z" fill="#053866"/><path d="M27.258 69.838l-13.613.032V57.869l13.613-.032v12.001z" fill="#3D95D1"/><path d="M.063 109.517v-2.388c14.46 0 26.725 6.44 26.725 22.808l-3.262-.063c0-11.027-10.414-20.357-23.463-20.357z" fill="#B9D5FD"/><path d="M0 114.7v-2.89c10.884 0 20.232 6.472 20.232 18.001l-3.921.126c0-8.42-6.775-15.237-16.311-15.237z" fill="#3D95D1"/><path d="M.063 120.104l.063-2.765c7.403 0 12.955 5.404 12.955 12.598L9.442 130c-.031-5.215-3.607-9.896-9.379-9.896z" fill="#3376B3"/><path d="M.063 125.885l.063-3.048c4.047 0 7.09 2.953 6.43 6.975l-3.262-.063c0-2.294-.69-3.896-3.23-3.864z" fill="#709FDC"/><path d="M51.473 55.292h-21.36V36.348h21.36v14.923H34.127V39.836l13.331.031v7.948h-9.316V43.26h5.301" stroke="#3D95D1" stroke-width="2" stroke-miterlimit="10"/><path d="M104.829 54.916L86.385 36.63m0 18.286l18.444-18.285" stroke="#0E2951" stroke-width="4" stroke-miterlimit="10"/><path d="M64.146 77.032h-4.329V73.2l4.329-.032v3.864zm5.96-5.277l-4.329-.032V67.89l4.329.032v3.833zm5.959-5.31l-4.329.032v-3.865h4.329v3.833z" fill="#B9D5FD"/><path d="M20.703 52.088H.095L.063 33.74l20.64.094v18.253z" fill="#C43B55"/><path d="M15.182 47.155H.095L.063 33.741l15.12.063v13.351z" fill="#FF8098"/><path d="M13.643 81.902H.093V69.9l13.55-.032v12.033z" fill="#3D95D1"/><path d="M72.302 3.425l-47.114-.409L.064 33.741l47.459.063 24.78-30.38z" fill="#165B93"/><path d="M133.185 1.665l.407-1.005.251-.66" fill="#34DD17"/><path d="M133.969 3.581l-51.38-.157-22.772 30.474 48.651-.126 25.501-30.19z" fill="#165B93"/><path d="M121.266 10.273l-12.798 23.5L.063 33.74 12.8 10.053l108.467.22zm2.006-2.167l10.696-4.524-108.78-.566L14.553 7.73l108.718.377z" fill="#004376"/><path d="M108.679 57.572H0v48.285h108.679V57.572z" fill="#FF8098"/></g><defs><clipPath id="clip0"><path fill="#fff" d="M0 0h134v130H0z"/></clipPath></defs></svg>
